X: 2
T: The Iron Man
R: strathspey
M: 4/4
L: 1/8
K: Amaj
A/A/A c>A B>G A2|c/c/c e>c d>B c>e|f<d d>f e<c c>e|d>B (3cBA G<B B<c|
A/A/A c>A B>G A2|c/c/c e>c d>B c>e|f<d d>f e<c c>e|d>B (3cBA E<A A>g||
a<A g>A f>A e>A|(3cBA (3efg (3aed (3cBA|d<E c>E B>E c>E|(3dcB (3cBA (3Bcd (3efg|
a<A g>A f>A e>A|(3cBA (3efg (3aed (3cBA|d<f (3fed (3cag (3fed|(3cBA (3GAB c<AA2||

